azure-docs/api_knowledgeexploration.svg

<?xml version="1.0" encoding="UTF-8"?>
<svg width="512px" height="512px" viewBox="0 0 512 512" version="1.1" xmlns="http://www.w3.org/2000/svg" xmlns:xlink="http://www.w3.org/1999/xlink">
    <!-- Generator: Sketch 46.2 (44496) - http://www.bohemiancoding.com/sketch -->
    <title>knowledgeExploration-wht-bluBG-512p</title>
    <desc>Created with Sketch.</desc>
    <defs></defs>
    <g id="PRODUCTION-ICONS" stroke="none" stroke-width="1" fill="none" fill-rule="evenodd">
        <g id="knowledgeExploration-wht-bluBG-512p">
            <g id="Knowledge-Exploration-Service-">
                <rect id="Rectangle-3-Copy-21" fill="#0063B1" x="0" y="0" width="512" height="512"></rect>
                <path d="M364.088889,381.155556 C351.522133,381.155556 341.333333,370.972444 341.333333,358.4 C341.333333,345.833244 351.522133,335.644444 364.088889,335.644444 C376.661333,335.644444 386.844444,345.833244 386.844444,358.4 C386.844444,370.972444 376.661333,381.155556 364.088889,381.155556 M364.088889,312.888889 C338.955378,312.888889 318.577778,333.266489 318.577778,358.4 C318.577778,383.5392 338.955378,403.911111 364.088889,403.911111 C389.228089,403.911111 409.6,383.5392 409.6,358.4 C409.6,333.266489 389.228089,312.888889 364.088889,312.888889" id="Fill-1" fill="#FFFFFF"></path>
                <path d="M210.488889,312.888889 C160.216178,312.888889 119.466667,272.133689 119.466667,221.866667 C119.466667,171.599644 160.216178,130.844444 210.488889,130.844444 C232.8576,130.844444 253.309156,138.945422 269.1584,152.325689 C256.841956,166.3488 249.321244,184.672711 249.321244,204.8 C249.321244,233.119289 264.146489,257.917156 286.407111,272.036978 C270.108444,296.647111 242.210133,312.888889 210.488889,312.888889 M272.0768,204.8 C272.0768,191.311644 276.792889,178.944 284.632178,169.193244 C295.224889,184.069689 301.511111,202.217244 301.511111,221.866667 C301.511111,232.2432 299.690667,242.176 296.487822,251.471644 C281.742222,241.191822 272.0768,224.136533 272.0768,204.8 M385.854578,204.8 C385.854578,236.219733 360.385422,261.688889 328.965689,261.688889 C325.000533,261.688889 321.1264,261.279289 317.394489,260.5056 C321.763556,248.4224 324.266667,235.457422 324.266667,221.866667 C324.266667,196.681956 315.983644,173.488356 302.1312,154.641067 C310.129778,150.357333 319.260444,147.911111 328.965689,147.911111 C360.385422,147.911111 385.854578,173.380267 385.854578,204.8 M328.965689,284.444444 C372.952178,284.444444 408.610133,248.786489 408.610133,204.8 C408.610133,160.813511 372.952178,125.155556 328.965689,125.155556 C313.372444,125.155556 298.865778,129.706667 286.583467,137.454933 C266.416356,119.261867 239.786667,108.088889 210.488889,108.088889 C147.649422,108.088889 96.7111111,159.032889 96.7111111,221.866667 C96.7111111,284.700444 147.649422,335.644444 210.488889,335.644444 C251.477333,335.644444 287.294578,313.901511 307.319467,281.389511 C314.208711,283.335111 321.456356,284.444444 328.965689,284.444444" id="Fill-3" fill="#FFFFFF"></path>
            </g>
        </g>
    </g>
</svg>

<svg width="512" height="512" xmlns="http://www.w3.org/2000/svg"><g fill="none" fill-rule="evenodd"><path fill="#0063B1" d="M0 0h512v512H0z"/><path d="M364.089 381.156c-12.567 0-22.756-10.184-22.756-22.756 0-12.567 10.19-22.756 22.756-22.756 12.572 0 22.755 10.19 22.755 22.756 0 12.572-10.183 22.756-22.755 22.756m0-68.267c-25.134 0-45.511 20.377-45.511 45.511 0 25.14 20.377 45.511 45.51 45.511 25.14 0 45.512-20.372 45.512-45.511 0-25.134-20.372-45.511-45.511-45.511M210.489 312.889c-50.273 0-91.022-40.755-91.022-91.022s40.75-91.023 91.022-91.023c22.369 0 42.82 8.101 58.67 21.482-12.317 14.023-19.838 32.347-19.838 52.474 0 28.32 14.825 53.117 37.086 67.237-16.299 24.61-44.197 40.852-75.918 40.852M272.077 204.8c0-13.488 4.716-25.856 12.555-35.607 10.593 14.877 16.88 33.024 16.88 52.674 0 10.376-1.821 20.309-5.024 29.605-14.746-10.28-24.411-27.335-24.411-46.672m113.778 0c0 31.42-25.47 56.889-56.89 56.889-3.964 0-7.839-.41-11.57-1.183 4.369-12.084 6.872-25.049 6.872-38.64 0-25.184-8.283-48.378-22.136-67.225a56.666 56.666 0 0 1 26.835-6.73c31.42 0 56.889 25.47 56.889 56.889m-56.89 79.644c43.987 0 79.645-35.658 79.645-79.644 0-43.986-35.658-79.644-79.644-79.644-15.594 0-30.1 4.55-42.383 12.299-20.167-18.193-46.796-29.366-76.094-29.366-62.84 0-113.778 50.944-113.778 113.778 0 62.833 50.938 113.777 113.778 113.777 40.988 0 76.806-21.742 96.83-54.254 6.89 1.945 14.137 3.054 21.647 3.054" fill="#FFF"/></g></svg>
